X: 7170
T: Cian's Big Day
R: jig
M: 6/8
K: Adorian
eAA edB|AGE GAB|eAA ~g3|edB ABG|
eAA edB|AGE GAB|cBA BAG|EDE A3:|
|:~a3 ged|Bde ~g3|~a3 bag|edB ~G3|
~a3 beg|ede ~g3|eag edB|edB ~A3:|

